app/assets/images/heroicons/solid/shield-exclamation.svg

<svg width="24" height="24" viewBox="0 0 24 24" fill="none" xmlns="http://www.w3.org/2000/svg">
<path fill-rule="evenodd" clip-rule="evenodd" d="M11.4843 2.16971C11.7735 1.89578 12.2265 1.89578 12.5157 2.16971C14.5325 4.07968 17.2538 5.25001 20.25 5.25001C20.2977 5.25001 20.3453 5.24972 20.3928 5.24913C20.7202 5.24506 21.0123 5.45381 21.1146 5.76482C21.5271 7.01958 21.75 8.35954 21.75 9.75006C21.75 15.6921 17.6859 20.683 12.1869 22.0983C12.0643 22.1299 11.9357 22.1299 11.8131 22.0983C6.31406 20.683 2.25 15.6921 2.25 9.75006C2.25 8.35954 2.47287 7.01958 2.88541 5.76482C2.98767 5.45381 3.27984 5.24506 3.60721 5.24913C3.65473 5.24972 3.70233 5.25001 3.75 5.25001C6.74624 5.25001 9.46752 4.07968 11.4843 2.16971ZM12 8.25C12.4142 8.25 12.75 8.58579 12.75 9V12.75C12.75 13.1642 12.4142 13.5 12 13.5C11.5858 13.5 11.25 13.1642 11.25 12.75V9C11.25 8.58579 11.5858 8.25 12 8.25ZM12 15C11.5858 15 11.25 15.3358 11.25 15.75V15.7575C11.25 16.1717 11.5858 16.5075 12 16.5075H12.0075C12.4217 16.5075 12.7575 16.1717 12.7575 15.7575V15.75C12.7575 15.3358 12.4217 15 12.0075 15H12Z" fill="#0F172A"/>
</svg>

<svg xmlns="http://www.w3.org/2000/svg" viewBox="0 0 24 24" fill="currentColor" aria-hidden="true" data-slot="icon">
  <path fill-rule="evenodd" d="M11.484 2.17a.75.75 0 0 1 1.032 0 11.209 11.209 0 0 0 7.877 3.08.75.75 0 0 1 .722.515 12.74 12.74 0 0 1 .635 3.985c0 5.942-4.064 10.933-9.563 12.348a.749.749 0 0 1-.374 0C6.314 20.683 2.25 15.692 2.25 9.75c0-1.39.223-2.73.635-3.985a.75.75 0 0 1 .722-.516l.143.001c2.996 0 5.718-1.17 7.734-3.08ZM12 8.25a.75.75 0 0 1 .75.75v3.75a.75.75 0 0 1-1.5 0V9a.75.75 0 0 1 .75-.75ZM12 15a.75.75 0 0 0-.75.75v.008c0 .414.336.75.75.75h.008a.75.75 0 0 0 .75-.75v-.008a.75.75 0 0 0-.75-.75H12Z" clip-rule="evenodd"/>
</svg>
